Numix-Light/16x16/status/shutter-panel.svg

<?xml version="1.0" encoding="UTF-8" standalone="no"?>
<svg
   xmlns:dc="http://purl.org/dc/elements/1.1/"
   xmlns:cc="http://creativecommons.org/ns#"
   xmlns:rdf="http://www.w3.org/1999/02/22-rdf-syntax-ns#"
   xmlns:svg="http://www.w3.org/2000/svg"
   xmlns="http://www.w3.org/2000/svg"
   xmlns:sodipodi="http://sodipodi.sourceforge.net/DTD/sodipodi-0.dtd"
   xmlns:inkscape="http://www.inkscape.org/namespaces/inkscape"
   width="16"
   height="16"
   viewBox="0 0 16 16"
   id="svg3083"
   version="1.1"
   inkscape:version="0.48.5 r10040"
   sodipodi:docname="shutter-panel.svg">
  <metadata
     id="metadata3133">
    <rdf:RDF>
      <cc:Work
         rdf:about="">
        <dc:format>image/svg+xml</dc:format>
        <dc:type
           rdf:resource="http://purl.org/dc/dcmitype/StillImage" />
      </cc:Work>
    </rdf:RDF>
  </metadata>
  <sodipodi:namedview
     pagecolor="#ffffff"
     bordercolor="#666666"
     borderopacity="1"
     objecttolerance="10"
     gridtolerance="10"
     guidetolerance="10"
     inkscape:pageopacity="0"
     inkscape:pageshadow="2"
     inkscape:window-width="640"
     inkscape:window-height="480"
     id="namedview3131"
     showgrid="false"
     inkscape:zoom="7.375"
     inkscape:cx="-4.3567198"
     inkscape:cy="3.5093403"
     inkscape:window-x="0"
     inkscape:window-y="0"
     inkscape:window-maximized="0"
     inkscape:current-layer="svg3083" />
  <defs
     id="defs3085">
    <filter
       id="0"
       filterUnits="objectBoundingBox"
       x="0"
       y="0"
       width="16"
       height="16">
      <feColorMatrix
         type="matrix"
         in="SourceGraphic"
         values="0 0 0 0 1 0 0 0 0 1 0 0 0 0 1 0 0 0 1 0"
         id="feColorMatrix3088" />
    </filter>
    <mask
       id="1">
      <g
         filter="url(#0)"
         id="g3091">
        <rect
           width="16"
           height="16"
           fill-opacity="0.302"
           id="rect3093" />
      </g>
    </mask>
    <clipPath
       id="2">
      <rect
         width="16"
         height="16"
         id="rect3096" />
    </clipPath>
    <g
       id="3"
       clip-path="url(#2)">
      <path
         d="M 10.488281 5.519531 C 9.226562 5.609375 7.007812 7.734375 7.320312 7.722656 C 9.902344 7.632812 11.511719 7.78125 13.527344 8.398438 C 13.824219 8.488281 13.203125 5.726562 10.488281 5.519531 Z "
         id="path3099" />
      <path
         d="M 6.648438 3.773438 C 5.933594 4.804688 5.84375 8.839844 6.027344 8.589844 C 7.554688 6.542969 11.214844 4.011719 13.398438 2.992188 C 16.09375 1.734375 8.246094 1.886719 6.648438 3.773438 Z "
         id="path3101" />
      <path
         d="M 3.398438 8.164062 C 3.8125 9.34375 6.460938 10.917969 6.371094 10.621094 C 5.617188 8.179688 5.34375 6.601562 5.429688 4.515625 C 5.441406 4.207031 2.902344 5.515625 3.398438 8.164062 Z "
         id="path3103" />
      <path
         d="M 3.746094 12.046875 C 4.917969 12.519531 7.859375 11.585938 7.574219 11.460938 C 5.21875 10.410156 3.839844 9.570312 2.3125 8.132812 C 2.085938 7.921875 1.402344 10.671875 3.746094 12.046875 Z "
         id="path3105" />
      <path
         d="M 7.136719 14.269531 C 8.257812 13.6875 9.433594 10.863281 9.152344 10.996094 C 6.820312 12.097656 5.285156 12.601562 3.1875 12.832031 C 2.878906 12.863281 4.5625 15.152344 7.136719 14.269531 Z "
         id="path3107" />
      <path
         d="M 11.089844 13.070312 C 11.363281 11.847656 9.941406 9.136719 9.863281 9.4375 C 9.210938 11.90625 8.605469 13.394531 7.429688 15.125 C 7.257812 15.378906 10.113281 15.582031 11.089844 13.070312 Z "
         id="path3109" />
      <path
         d="M 12.644531 9.222656 C 11.882812 8.222656 8.875 7.53125 9.054688 7.785156 C 10.53125 9.882812 11.28125 11.300781 11.847656 13.308594 C 11.933594 13.605469 13.941406 11.589844 12.644531 9.222656 Z "
         id="path3111" />
    </g>
  </defs>
  <path
     style="fill:#353535;fill-opacity:1"
     inkscape:connector-curvature="0"
     id="path3117"
     d="M 10.488281,4.792969 C 9.226562,4.882812 7.007812,7.003906 7.320312,6.996094 9.902344,6.90625 11.511719,7.054688 13.527344,7.671875 13.824219,7.761719 13.203125,5 10.488281,4.792969 z" />
  <path
     style="fill:#353535;fill-opacity:1"
     inkscape:connector-curvature="0"
     id="path3119"
     d="M 6.648438,3.046875 C 5.933594,4.078125 5.84375,8.113281 6.027344,7.863281 c 1.527344,-2.046875 5.1875,-4.578125 7.371094,-5.597656 2.695312,-1.257813 -5.152344,-1.105469 -6.75,0.78125 z" />
  <path
     style="fill:#353535;fill-opacity:1"
     inkscape:connector-curvature="0"
     id="path3121"
     d="M 3.398438,7.433594 C 3.8125,8.617188 6.460938,10.191406 6.371094,9.894531 5.617188,7.453125 5.34375,5.875 5.429688,3.789062 5.441406,3.480469 2.902344,4.785156 3.398438,7.433594 z" />
  <path
     style="fill:#353535;fill-opacity:1"
     inkscape:connector-curvature="0"
     id="path3123"
     d="M 3.746094,11.320312 C 4.917969,11.792969 7.859375,10.859375 7.574219,10.734375 5.21875,9.683594 3.839844,8.84375 2.3125,7.40625 2.085938,7.195312 1.402344,9.945312 3.746094,11.320312 z" />
  <path
     style="fill:#353535;fill-opacity:1"
     inkscape:connector-curvature="0"
     id="path3125"
     d="M 7.136719,13.542969 C 8.257812,12.960938 9.433594,10.136719 9.152344,10.269531 6.820312,11.371094 5.285156,11.875 3.1875,12.105469 c -0.308594,0.03125 1.375,2.320312 3.949219,1.4375 z" />
  <path
     style="fill:#353535;fill-opacity:1"
     inkscape:connector-curvature="0"
     id="path3127"
     d="M 11.089844,12.34375 C 11.363281,11.121094 9.941406,8.410156 9.863281,8.707031 c -0.652343,2.472657 -1.257812,3.957031 -2.433593,5.691407 -0.171876,0.253906 2.683593,0.457031 3.660156,-2.054688 z" />
  <path
     style="fill:#353535;fill-opacity:1"
     inkscape:connector-curvature="0"
     id="path3129"
     d="m 12.644531,8.496094 c -0.761719,-1 -3.769531,-1.691406 -3.589843,-1.4375 1.476562,2.09375 2.226562,3.515625 2.792968,5.523437 0.08594,0.296875 2.09375,-1.71875 0.796875,-4.085937 z" />
</svg>

<svg xmlns="http://www.w3.org/2000/svg" xmlns:xlink="http://www.w3.org/1999/xlink" width="16" height="16" viewBox="0 0 16 16">
 <defs>
  <filter id="0" filterUnits="objectBoundingBox" x="0" y="0" width="16" height="16">
   <feColorMatrix type="matrix" in="SourceGraphic" values="0 0 0 0 1 0 0 0 0 1 0 0 0 0 1 0 0 0 1 0"/>
  </filter>
  <mask id="1">
   <g filter="url(#0)">
    <rect width="16" height="16" fill-opacity="0.302"/>
   </g>
  </mask>
  <clipPath id="2">
   <rect width="16" height="16"/>
  </clipPath>
  <g id="3" clip-path="url(#2)">
   <path d="M 10.488281 5.519531 C 9.226562 5.609375 7.007812 7.734375 7.320312 7.722656 C 9.902344 7.632812 11.511719 7.78125 13.527344 8.398438 C 13.824219 8.488281 13.203125 5.726562 10.488281 5.519531 Z "/>
   <path d="M 6.648438 3.773438 C 5.933594 4.804688 5.84375 8.839844 6.027344 8.589844 C 7.554688 6.542969 11.214844 4.011719 13.398438 2.992188 C 16.09375 1.734375 8.246094 1.886719 6.648438 3.773438 Z "/>
   <path d="M 3.398438 8.164062 C 3.8125 9.34375 6.460938 10.917969 6.371094 10.621094 C 5.617188 8.179688 5.34375 6.601562 5.429688 4.515625 C 5.441406 4.207031 2.902344 5.515625 3.398438 8.164062 Z "/>
   <path d="M 3.746094 12.046875 C 4.917969 12.519531 7.859375 11.585938 7.574219 11.460938 C 5.21875 10.410156 3.839844 9.570312 2.3125 8.132812 C 2.085938 7.921875 1.402344 10.671875 3.746094 12.046875 Z "/>
   <path d="M 7.136719 14.269531 C 8.257812 13.6875 9.433594 10.863281 9.152344 10.996094 C 6.820312 12.097656 5.285156 12.601562 3.1875 12.832031 C 2.878906 12.863281 4.5625 15.152344 7.136719 14.269531 Z "/>
   <path d="M 11.089844 13.070312 C 11.363281 11.847656 9.941406 9.136719 9.863281 9.4375 C 9.210938 11.90625 8.605469 13.394531 7.429688 15.125 C 7.257812 15.378906 10.113281 15.582031 11.089844 13.070312 Z "/>
   <path d="M 12.644531 9.222656 C 11.882812 8.222656 8.875 7.53125 9.054688 7.785156 C 10.53125 9.882812 11.28125 11.300781 11.847656 13.308594 C 11.933594 13.605469 13.941406 11.589844 12.644531 9.222656 Z "/>
  </g>
 </defs>
 <g>
  <use xlink:href="#3" mask="url(#1)"/>
  <path d="M 10.488281 4.792969 C 9.226562 4.882812 7.007812 7.003906 7.320312 6.996094 C 9.902344 6.90625 11.511719 7.054688 13.527344 7.671875 C 13.824219 7.761719 13.203125 5 10.488281 4.792969 Z " fill="#353535"/>
  <path d="M 6.648438 3.046875 C 5.933594 4.078125 5.84375 8.113281 6.027344 7.863281 C 7.554688 5.816406 11.214844 3.285156 13.398438 2.265625 C 16.09375 1.007812 8.246094 1.160156 6.648438 3.046875 Z " fill="#353535"/>
  <path d="M 3.398438 7.433594 C 3.8125 8.617188 6.460938 10.191406 6.371094 9.894531 C 5.617188 7.453125 5.34375 5.875 5.429688 3.789062 C 5.441406 3.480469 2.902344 4.785156 3.398438 7.433594 Z " fill="#353535"/>
  <path d="M 3.746094 11.320312 C 4.917969 11.792969 7.859375 10.859375 7.574219 10.734375 C 5.21875 9.683594 3.839844 8.84375 2.3125 7.40625 C 2.085938 7.195312 1.402344 9.945312 3.746094 11.320312 Z " fill="#353535"/>
  <path d="M 7.136719 13.542969 C 8.257812 12.960938 9.433594 10.136719 9.152344 10.269531 C 6.820312 11.371094 5.285156 11.875 3.1875 12.105469 C 2.878906 12.136719 4.5625 14.425781 7.136719 13.542969 Z " fill="#353535"/>
  <path d="M 11.089844 12.34375 C 11.363281 11.121094 9.941406 8.410156 9.863281 8.707031 C 9.210938 11.179688 8.605469 12.664062 7.429688 14.398438 C 7.257812 14.652344 10.113281 14.855469 11.089844 12.34375 Z " fill="#353535"/>
  <path d="M 12.644531 8.496094 C 11.882812 7.496094 8.875 6.804688 9.054688 7.058594 C 10.53125 9.152344 11.28125 10.574219 11.847656 12.582031 C 11.933594 12.878906 13.941406 10.863281 12.644531 8.496094 Z " fill="#353535"/>
 </g>
</svg>
